!! 00044] TT[TB
!! Zh. Ch. M-3084, NN), Peking: LP 34862/856)
!!!OTL: Huaqi longchuan zou xinjiang
!!!ARE: Asia, China,ÿJiangxi, Guixi
!! Ethnic Group: Han
!! IV, 266
!!!SCT: C1220
!!!YEM: Copyright 1995, estate of Helmut Schaffrath.
**kern
*ICvox
*Ivox
*M2/4
*k[f#c#]
*D:
{2a}
=1
{8b
8a
8b
8ff#
=2
8ee
8ee
8dd
8b}
=3
{8ff#
8ff#
8ee
8dd
=4
4b
8b
8a}
=5
{4.b
8dd
=6
4.ee
8ff#
=7
2ee}
=8
{4dd
4b
=9
2ee}
=10
{8dd
8dd
16b
16a
8b
=11
2a}
=12
{8ee
8ee
8ee
8dd
=13
8b
8a
4b}
=14
{8dd
8dd
16b
16a
8b
=15
4a}
{8a
8f#
=16
4a
8f#
8a
=17
4b
8b
8a
=18
4f#
8b
8a
=19
2f#}
==
!! Some strange data:
!! =20
!! {16ccVereinzelt#
!! 16.ccVerzierungen#}
!!!AGN: Haozi, Longchuan haozi, Fengsuge. Duanwujie hualongchuan chang
!!!ONB: ESAC (Essen Associative Code) Database: CHINA
!!!AMT: simple duple
!!!AIN: vox
!!!EED: Helmut Schaffrath
!!!EEV: 1.0
*-
